X:191
T:Mint in the Corn* (reel) 
B:CRE2.191 (gan ainm)
F:file ID: cre.2/191mint_c
L:1/8
M:C
R:reel
Q:180
K:D
G|FAAF D2FD|EA,CE AGFE|FGAF D2FD|EA,CE D3:|
G|FDFA dAFA|GFGB edcB|cdec ABAc|BE^GB A2Ac|
dcBA (3Bcd e2|(3efe (3dcB (3ABA (3GFE|FGAF D2FD|\
EA,CE HD4||

%%%

